X: 183
M: 2/4
L: 1/16
K: G
|:\
(GA)(Bc) d2g2 | f2(af) d4 |\
[|\
(G/A/B/c/) d2efg2 | B2(AG) c2(BA) |\
(3(Bcd) cB A2D2 | GABc dgfg | "_Last part but once."TB2cA G4 |]

